common/src/main/resources/icons/plugins/resharper/Xamarin/XamarinArchiveAab.svg

<svg xmlns="http://www.w3.org/2000/svg" width="16" height="16" data-big="true" viewBox="0 0 24 24"><path fill="#6AAB20" d="M5.12 5h13.75l-.94-1h-12zm15.42.23c.29.34.46.77.46 1.27V19a2 2 0 0 1-2 2H5a2 2 0 0 1-2-2V6.5c0-.5.17-.93.46-1.27l1.38-1.68C5.12 3.21 5.53 3 6 3h12c.47 0 .88.21 1.15.55zM6 18h6v-3H6z"/></svg>

<!--
  - The MIT License (MIT)
  -
  - Copyright (c) 2015-2024 Elior "Mallowigi" Boukhobza
  -
  - Permission is hereby granted, free of charge, to any person obtaining a copy
  - of this software and associated documentation files (the "Software"), to deal
  - in the Software without restriction, including without limitation the rights
  - to use, copy, modify, merge, publish, distribute, sublicense, and/or sell
  - copies of the Software, and to permit persons to whom the Software is
  - furnished to do so, subject to the following conditions:
  -
  - The above copyright notice and this permission notice shall be included in all
  - copies or substantial portions of the Software.
  -
  - THE SOFTWARE IS PROVIDED "AS IS", WITHOUT WARRANTY OF ANY KIND, EXPRESS OR
  - IMPLIED, INCLUDING BUT NOT LIMITED TO THE WARRANTIES OF MERCHANTABILITY,
  - FITNESS FOR A PARTICULAR PURPOSE AND NONINFRINGEMENT. IN NO EVENT SHALL THE
  - AUTHORS OR COPYRIGHT HOLDERS BE LIABLE FOR ANY CLAIM, DAMAGES OR OTHER
  - LIABILITY, WHETHER IN AN ACTION OF CONTRACT, TORT OR OTHERWISE, ARISING FROM,
  - OUT OF OR IN CONNECTION WITH THE SOFTWARE OR THE USE OR OTHER DEALINGS IN THE
  - SOFTWARE.
  -->

<svg data-big="true" xmlns="http://www.w3.org/2000/svg" version="1.1" width="16px" height="16px" viewBox="0 0 24 24">
  <path fill="#6AAB20"
        d="M5.12,5H18.87L17.93,4H5.93L5.12,5M20.54,5.23C20.83,5.57 21,6 21,6.5V19A2,2 0 0,1 19,21H5A2,2 0 0,1 3,19V6.5C3,6 3.17,5.57 3.46,5.23L4.84,3.55C5.12,3.21 5.53,3 6,3H18C18.47,3 18.88,3.21 19.15,3.55L20.54,5.23M6,18H12V15H6V18Z"/>
</svg>
